austria/municipalities/32335.svg

<?xml version="1.0" encoding="UTF-8"?>
<!DOCTYPE svg PUBLIC "-//W3C//DTD SVG 1.1//EN" "http://www.w3.org/Graphics/SVG/1.1/DTD/svg11.dtd">
<svg xmlns="http://www.w3.org/2000/svg" version="1.1" width="75px" height="75px" style="shape-rendering:geometricPrecision; text-rendering:geometricPrecision; image-rendering:optimizeQuality; fill-rule:evenodd; clip-rule:evenodd" xmlns:xlink="http://www.w3.org/1999/xlink">
<g><path style="opacity:1" fill="#f6f7f7" d="M -0.5,-0.5 C 24.5,-0.5 49.5,-0.5 74.5,-0.5C 74.5,24.5 74.5,49.5 74.5,74.5C 49.5,74.5 24.5,74.5 -0.5,74.5C -0.5,49.5 -0.5,24.5 -0.5,-0.5 Z"/></g>
<g><path style="opacity:1" fill="#2869e6" d="M 7.5,4.5 C 27.5,4.5 47.5,4.5 67.5,4.5C 67.6665,14.1724 67.4998,23.8391 67,33.5C 66.4444,31.4049 65.9444,31.2382 65.5,33C 66.2865,35.0989 66.6199,37.2655 66.5,39.5C 64.5427,48.4084 60.2094,55.7418 53.5,61.5C 52.8333,60.5 52.1667,59.5 51.5,58.5C 51.9823,51.464 49.3156,46.1306 43.5,42.5C 43.238,41.0222 43.5713,39.6888 44.5,38.5C 45.9014,37.4793 47.2347,36.4793 48.5,35.5C 50.1454,34.5213 51.4787,33.188 52.5,31.5C 50.9205,28.0061 49.0872,24.6728 47,21.5C 45.8904,19.9632 44.3904,19.2965 42.5,19.5C 42.1583,18.6618 41.4916,18.3284 40.5,18.5C 40.7214,17.2652 41.3881,16.2652 42.5,15.5C 41.3491,13.2269 40.3491,10.8935 39.5,8.5C 34.2254,6.78733 32.2254,8.454 33.5,13.5C 33.4208,14.9305 33.7542,16.2638 34.5,17.5C 33.7573,18.1818 33.0906,18.8485 32.5,19.5C 28.6311,20.7093 26.6311,23.376 26.5,27.5C 25.596,28.209 25.2627,29.209 25.5,30.5C 23.4247,30.6984 21.4247,30.8651 19.5,31C 19.9574,30.586 20.2907,30.086 20.5,29.5C 19.273,28.4096 18.4396,27.0762 18,25.5C 17.8299,19.8042 17.3299,14.1376 16.5,8.5C 15.5033,15.1335 15.17,21.8002 15.5,28.5C 14.325,28.281 13.325,28.6143 12.5,29.5C 14.2055,31.612 15.5389,33.9453 16.5,36.5C 20.4477,34.9691 24.4477,33.9691 28.5,33.5C 28.6854,31.8042 29.5187,30.4709 31,29.5C 31.4643,30.0944 31.631,30.7611 31.5,31.5C 31.756,35.2693 31.4227,38.9359 30.5,42.5C 25.9628,44.3673 23.2961,47.7007 22.5,52.5C 21.7552,55.3896 21.0885,58.3896 20.5,61.5C 11.2174,53.8193 6.21743,43.8193 5.5,31.5C 4.86227,22.1045 5.52894,13.1045 7.5,4.5 Z"/></g>
<g><path style="opacity:1" fill="#a29c1c" d="M 40.5,18.5 C 38.2901,17.5449 37.9568,16.0449 39.5,14C 38.5,13.3333 37.5,13.3333 36.5,14C 37.7112,14.8928 37.7112,15.7261 36.5,16.5C 35.8589,15.0065 34.8589,14.0065 33.5,13.5C 32.2254,8.454 34.2254,6.78733 39.5,8.5C 40.3491,10.8935 41.3491,13.2269 42.5,15.5C 41.3881,16.2652 40.7214,17.2652 40.5,18.5 Z"/></g>
<g><path style="opacity:1" fill="#2f4a7c" d="M 7.5,3.5 C 7.5,3.83333 7.5,4.16667 7.5,4.5C 5.52894,13.1045 4.86227,22.1045 5.5,31.5C 4.50644,22.3483 4.17311,13.015 4.5,3.5C 5.5,3.5 6.5,3.5 7.5,3.5 Z"/></g>
<g><path style="opacity:1" fill="#1d4ab0" d="M 7.5,4.5 C 7.5,4.16667 7.5,3.83333 7.5,3.5C 27.8333,3.5 48.1667,3.5 68.5,3.5C 68.6665,14.505 68.4998,25.505 68,36.5C 67.7679,37.7375 67.2679,38.7375 66.5,39.5C 66.6199,37.2655 66.2865,35.0989 65.5,33C 65.9444,31.2382 66.4444,31.4049 67,33.5C 67.4998,23.8391 67.6665,14.1724 67.5,4.5C 47.5,4.5 27.5,4.5 7.5,4.5 Z"/></g>
<g><path style="opacity:1" fill="#f4f20f" d="M 32.5,19.5 C 34.7224,19.5587 35.7224,20.7253 35.5,23C 34.6136,28.7974 34.2802,34.6307 34.5,40.5C 32.89,37.7967 31.89,34.7967 31.5,31.5C 31.631,30.7611 31.4643,30.0944 31,29.5C 29.5187,30.4709 28.6854,31.8042 28.5,33.5C 26.396,33.7989 24.396,33.4656 22.5,32.5C 23.6888,31.5713 25.0222,31.238 26.5,31.5C 26.5,30.1667 26.5,28.8333 26.5,27.5C 26.6311,23.376 28.6311,20.7093 32.5,19.5 Z"/></g>
<g><path style="opacity:1" fill="#f0ed13" d="M 42.5,19.5 C 44.3904,19.2965 45.8904,19.9632 47,21.5C 49.0872,24.6728 50.9205,28.0061 52.5,31.5C 51.4787,33.188 50.1454,34.5213 48.5,35.5C 46.9519,35.1788 46.2852,34.1788 46.5,32.5C 47.3438,30.4813 46.6771,28.8147 44.5,27.5C 43.7025,27.9569 43.3691,28.6236 43.5,29.5C 42.727,32.2546 41.3937,34.7546 39.5,37C 39.7995,39.0243 40.6329,39.5243 42,38.5C 42.6667,39.5 42.6667,40.5 42,41.5C 40.3005,40.5939 38.4672,40.2606 36.5,40.5C 36.3339,34.8236 36.5006,29.1569 37,23.5C 37.8747,20.7854 39.7081,19.4521 42.5,19.5 Z"/></g>
<g><path style="opacity:1" fill="#2d5ecb" d="M 46.5,32.5 C 44.1205,33.5669 43.1205,32.5669 43.5,29.5C 43.3691,28.6236 43.7025,27.9569 44.5,27.5C 46.6771,28.8147 47.3438,30.4813 46.5,32.5 Z"/></g>
<g><path style="opacity:1" fill="#acab27" d="M 26.5,27.5 C 26.5,28.8333 26.5,30.1667 26.5,31.5C 25.0222,31.238 23.6888,31.5713 22.5,32.5C 24.396,33.4656 26.396,33.7989 28.5,33.5C 24.4477,33.9691 20.4477,34.9691 16.5,36.5C 15.5389,33.9453 14.2055,31.612 12.5,29.5C 13.325,28.6143 14.325,28.281 15.5,28.5C 15.17,21.8002 15.5033,15.1335 16.5,8.5C 17.3299,14.1376 17.8299,19.8042 18,25.5C 18.4396,27.0762 19.273,28.4096 20.5,29.5C 20.2907,30.086 19.9574,30.586 19.5,31C 21.4247,30.8651 23.4247,30.6984 25.5,30.5C 25.2627,29.209 25.596,28.209 26.5,27.5 Z"/></g>
<g><path style="opacity:1" fill="#c4c109" d="M 33.5,13.5 C 34.8589,14.0065 35.8589,15.0065 36.5,16.5C 37.7112,15.7261 37.7112,14.8928 36.5,14C 37.5,13.3333 38.5,13.3333 39.5,14C 37.9568,16.0449 38.2901,17.5449 40.5,18.5C 41.4916,18.3284 42.1583,18.6618 42.5,19.5C 39.7081,19.4521 37.8747,20.7854 37,23.5C 36.5006,29.1569 36.3339,34.8236 36.5,40.5C 35.8333,40.5 35.1667,40.5 34.5,40.5C 34.2802,34.6307 34.6136,28.7974 35.5,23C 35.7224,20.7253 34.7224,19.5587 32.5,19.5C 33.0906,18.8485 33.7573,18.1818 34.5,17.5C 33.7542,16.2638 33.4208,14.9305 33.5,13.5 Z"/></g>
<g><path style="opacity:1" fill="#9f9a1a" d="M 43.5,29.5 C 43.1205,32.5669 44.1205,33.5669 46.5,32.5C 46.2852,34.1788 46.9519,35.1788 48.5,35.5C 47.2347,36.4793 45.9014,37.4793 44.5,38.5C 43.5713,39.6888 43.238,41.0222 43.5,42.5C 39.1779,41.2741 34.8445,41.2741 30.5,42.5C 31.4227,38.9359 31.756,35.2693 31.5,31.5C 31.89,34.7967 32.89,37.7967 34.5,40.5C 35.1667,40.5 35.8333,40.5 36.5,40.5C 38.4672,40.2606 40.3005,40.5939 42,41.5C 42.6667,40.5 42.6667,39.5 42,38.5C 40.6329,39.5243 39.7995,39.0243 39.5,37C 41.3937,34.7546 42.727,32.2546 43.5,29.5 Z"/></g>
<g><path style="opacity:1" fill="#ddda1c" d="M 43.5,42.5 C 49.3156,46.1306 51.9823,51.464 51.5,58.5C 49.4444,57.3777 48.1111,55.7111 47.5,53.5C 47.44,52.9569 47.1067,52.6236 46.5,52.5C 44.4664,53.5588 42.4664,54.5588 40.5,55.5C 37.8333,55.5 35.1667,55.5 32.5,55.5C 30.6137,54.6394 28.7804,53.6394 27,52.5C 25.8118,53.5634 25.3118,54.8967 25.5,56.5C 24.5041,56.4142 23.6708,56.7476 23,57.5C 22.5065,55.8659 22.3398,54.1992 22.5,52.5C 23.2961,47.7007 25.9628,44.3673 30.5,42.5C 34.8445,41.2741 39.1779,41.2741 43.5,42.5 Z"/></g>
<g><path style="opacity:1" fill="#57685f" d="M 34.5,45.5 C 35.8003,48.0241 35.8003,50.6908 34.5,53.5C 33.8933,53.3764 33.56,53.0431 33.5,52.5C 34.4682,50.3926 34.8016,48.0593 34.5,45.5 Z"/></g>
<g><path style="opacity:1" fill="#3563d0" d="M 34.5,45.5 C 34.8016,48.0593 34.4682,50.3926 33.5,52.5C 26.6665,49.3087 26.9998,46.9754 34.5,45.5 Z"/></g>
<g><path style="opacity:1" fill="#2f5bc1" d="M 38.5,45.5 C 41.1398,45.954 43.4732,47.1207 45.5,49C 43.3359,49.9143 41.3359,51.081 39.5,52.5C 38.5258,50.2573 38.1924,47.924 38.5,45.5 Z"/></g>
<g><path style="opacity:1" fill="#2a5ec8" d="M 32.5,55.5 C 32.189,56.4778 31.5223,57.1445 30.5,57.5C 28.9291,56.6906 27.2624,56.3573 25.5,56.5C 25.3118,54.8967 25.8118,53.5634 27,52.5C 28.7804,53.6394 30.6137,54.6394 32.5,55.5 Z"/></g>
<g><path style="opacity:1" fill="#2f5bba" d="M 47.5,53.5 C 47.5,54.5 47.5,55.5 47.5,56.5C 45.8014,56.6204 44.1347,56.9537 42.5,57.5C 41.2867,57.2528 40.62,56.5862 40.5,55.5C 42.4664,54.5588 44.4664,53.5588 46.5,52.5C 47.1067,52.6236 47.44,52.9569 47.5,53.5 Z"/></g>
<g><path style="opacity:1" fill="#28791f" d="M 22.5,52.5 C 22.3398,54.1992 22.5065,55.8659 23,57.5C 23.6708,56.7476 24.5041,56.4142 25.5,56.5C 27.2624,56.3573 28.9291,56.6906 30.5,57.5C 31.5223,57.1445 32.189,56.4778 32.5,55.5C 35.1667,55.5 37.8333,55.5 40.5,55.5C 40.62,56.5862 41.2867,57.2528 42.5,57.5C 44.1347,56.9537 45.8014,56.6204 47.5,56.5C 47.5,55.5 47.5,54.5 47.5,53.5C 48.1111,55.7111 49.4444,57.3777 51.5,58.5C 52.1667,59.5 52.8333,60.5 53.5,61.5C 48.6897,66.1334 43.1897,69.8001 37,72.5C 30.6765,69.9319 25.1765,66.2653 20.5,61.5C 21.0885,58.3896 21.7552,55.3896 22.5,52.5 Z"/></g>
</svg>

<svg xmlns="http://www.w3.org/2000/svg" width="75" height="75" style="shape-rendering:geometricPrecision;text-rendering:geometricPrecision;image-rendering:optimizeQuality;fill-rule:evenodd;clip-rule:evenodd"><path style="opacity:1" fill="#f6f7f7" d="M-.5-.5h75v75h-75v-75z"/><path style="opacity:1" fill="#2869e6" d="M7.5 4.5h60c.166 9.672 0 19.34-.5 29-.556-2.095-1.056-2.262-1.5-.5a15.902 15.902 0 0 1 1 6.5c-1.957 8.908-6.29 16.242-13 22l-2-3c.482-7.036-2.184-12.37-8-16-.262-1.478.071-2.811 1-4a171.62 171.62 0 0 0 4-3c1.645-.979 2.979-2.312 4-4a72.522 72.522 0 0 0-5.5-10c-1.11-1.537-2.61-2.203-4.5-2-.342-.838-1.008-1.172-2-1 .221-1.235.888-2.235 2-3a59.58 59.58 0 0 1-3-7c-5.275-1.713-7.275-.046-6 5a6.845 6.845 0 0 0 1 4 30.943 30.943 0 0 0-2 2c-3.869 1.21-5.869 3.876-6 8-.904.709-1.237 1.709-1 3-2.075.198-4.075.365-6 .5.457-.414.79-.914 1-1.5a8.19 8.19 0 0 1-2.5-4c-.17-5.696-.67-11.362-1.5-17-.997 6.633-1.33 13.3-1 20-1.175-.219-2.175.114-3 1a25.183 25.183 0 0 1 4 7c3.948-1.53 7.948-2.53 12-3 .185-1.696 1.019-3.03 2.5-4 .464.594.631 1.261.5 2 .256 3.77-.077 7.436-1 11-4.537 1.867-7.204 5.2-8 10-.745 2.89-1.412 5.89-2 9-9.283-7.68-14.283-17.68-15-30-.638-9.395.029-18.395 2-27z"/><path style="opacity:1" fill="#a29c1c" d="M40.5 18.5c-2.21-.955-2.543-2.455-1-4.5-1-.667-2-.667-3 0 1.211.893 1.211 1.726 0 2.5-.641-1.493-1.641-2.493-3-3-1.275-5.046.725-6.713 6-5a59.58 59.58 0 0 0 3 7c-1.112.765-1.779 1.765-2 3z"/><path style="opacity:1" fill="#2f4a7c" d="M7.5 3.5v1c-1.971 8.604-2.638 17.605-2 27-.994-9.152-1.327-18.485-1-28h3z"/><path style="opacity:1" fill="#1d4ab0" d="M7.5 4.5v-1h61c.166 11.005 0 22.005-.5 33-.232 1.237-.732 2.237-1.5 3a15.902 15.902 0 0 0-1-6.5c.444-1.762.944-1.595 1.5.5.5-9.66.666-19.328.5-29h-60z"/><path style="opacity:1" fill="#f4f20f" d="M32.5 19.5c2.222.059 3.222 1.225 3 3.5a92.6 92.6 0 0 0-1 17.5c-1.61-2.703-2.61-5.703-3-9a2.428 2.428 0 0 0-.5-2c-1.481.97-2.315 2.304-2.5 4a9.864 9.864 0 0 1-6-1c1.189-.929 2.522-1.262 4-1v-4c.131-4.124 2.131-6.79 6-8z"/><path style="opacity:1" fill="#f0ed13" d="M42.5 19.5c1.89-.203 3.39.463 4.5 2a72.522 72.522 0 0 1 5.5 10c-1.021 1.688-2.355 3.021-4 4-1.548-.321-2.215-1.321-2-3 .844-2.019.177-3.685-2-5-.797.457-1.13 1.124-1 2-.773 2.755-2.106 5.255-4 7.5.3 2.024 1.133 2.524 2.5 1.5.667 1 .667 2 0 3-1.7-.906-3.533-1.24-5.5-1-.166-5.676 0-11.343.5-17 .875-2.715 2.708-4.048 5.5-4z"/><path style="opacity:1" fill="#2d5ecb" d="M46.5 32.5c-2.38 1.067-3.38.067-3-3-.13-.876.203-1.543 1-2 2.177 1.315 2.844 2.981 2 5z"/><path style="opacity:1" fill="#acab27" d="M26.5 27.5v4c-1.478-.262-2.811.071-4 1a9.864 9.864 0 0 0 6 1c-4.052.47-8.052 1.47-12 3a25.183 25.183 0 0 0-4-7c.825-.886 1.825-1.219 3-1-.33-6.7.003-13.367 1-20 .83 5.638 1.33 11.304 1.5 17a8.19 8.19 0 0 0 2.5 4 3.646 3.646 0 0 1-1 1.5c1.925-.135 3.925-.302 6-.5-.237-1.291.096-2.291 1-3z"/><path style="opacity:1" fill="#c4c109" d="M33.5 13.5c1.359.507 2.359 1.507 3 3 1.211-.774 1.211-1.607 0-2.5 1-.667 2-.667 3 0-1.543 2.045-1.21 3.545 1 4.5.992-.172 1.658.162 2 1-2.792-.048-4.625 1.285-5.5 4-.5 5.657-.666 11.324-.5 17h-2a92.6 92.6 0 0 1 1-17.5c.222-2.275-.778-3.441-3-3.5a30.943 30.943 0 0 1 2-2 6.845 6.845 0 0 1-1-4z"/><path style="opacity:1" fill="#9f9a1a" d="M43.5 29.5c-.38 3.067.62 4.067 3 3-.215 1.679.452 2.679 2 3a171.62 171.62 0 0 1-4 3c-.929 1.189-1.262 2.522-1 4-4.322-1.226-8.656-1.226-13 0 .923-3.564 1.256-7.23 1-11 .39 3.297 1.39 6.297 3 9h2c1.967-.24 3.8.094 5.5 1 .667-1 .667-2 0-3-1.367 1.024-2.2.524-2.5-1.5 1.894-2.245 3.227-4.745 4-7.5z"/><path style="opacity:1" fill="#ddda1c" d="M43.5 42.5c5.816 3.63 8.482 8.964 8 16-2.056-1.122-3.389-2.789-4-5-.06-.543-.393-.876-1-1a199.631 199.631 0 0 1-6 3h-8a44.334 44.334 0 0 1-5.5-3c-1.188 1.063-1.688 2.397-1.5 4-.996-.086-1.83.248-2.5 1-.494-1.634-.66-3.3-.5-5 .796-4.8 3.463-8.133 8-10 4.344-1.226 8.678-1.226 13 0z"/><path style="opacity:1" fill="#57685f" d="M34.5 45.5c1.3 2.524 1.3 5.19 0 8-.607-.124-.94-.457-1-1 .968-2.107 1.302-4.44 1-7z"/><path style="opacity:1" fill="#3563d0" d="M34.5 45.5c.302 2.56-.032 4.893-1 7-6.834-3.191-6.5-5.525 1-7z"/><path style="opacity:1" fill="#2f5bc1" d="M38.5 45.5c2.64.454 4.973 1.62 7 3.5a26.86 26.86 0 0 0-6 3.5 13.117 13.117 0 0 1-1-7z"/><path style="opacity:1" fill="#2a5ec8" d="M32.5 55.5c-.311.978-.978 1.645-2 2a9.106 9.106 0 0 0-5-1c-.188-1.603.312-2.937 1.5-4a44.334 44.334 0 0 0 5.5 3z"/><path style="opacity:1" fill="#2f5bba" d="M47.5 53.5v3c-1.699.12-3.365.454-5 1-1.213-.247-1.88-.914-2-2a199.631 199.631 0 0 0 6-3c.607.124.94.457 1 1z"/><path style="opacity:1" fill="#28791f" d="M22.5 52.5c-.16 1.7.006 3.366.5 5 .67-.752 1.504-1.086 2.5-1a9.106 9.106 0 0 1 5 1c1.022-.355 1.689-1.022 2-2h8c.12 1.086.787 1.753 2 2a20.228 20.228 0 0 1 5-1v-3c.611 2.211 1.944 3.878 4 5l2 3c-4.81 4.633-10.31 8.3-16.5 11-6.323-2.568-11.823-6.235-16.5-11 .588-3.11 1.255-6.11 2-9z"/></svg>
